!! "Fuki No Kyoku" Example 2 from Section I (Japanese) from
!! Archibald T. Davison & Willi Apel "Historical Anthology of Music"
!! Vol. 1, Harvard University Press
!! Koto	voice
!! (Cambridge) -1947; p. 3-4
**kern	**kern
*M2/4	*M2/4
=1	=1
4a	2r
4b	.
=2	=2
4f	8r
.	[4.ff
4a	.
=3	=3
2ff	8ff]
.	4.bb
=4	=4
4aa	8aa
.	8.bb
4ff	.
.	16aa
.	8ff
=5	=5
4ee	8.ee
.	16dd
16r	[4ee
16e	.
8e	.
=6	=6
4aa	8ee]
.	4.ff
8.ff	.
16aa	.
=7	=7
4ee	8bb
.	4.ee
16r	.
16e	.
8e	.
=8	=8
8e	8dd
8dd	[4.ee
4ee	.
=9	=9
4b	4ee]
4cc	4r
=10	=10
4a	8r
.	4ff
4b	.
.	[8bb
=11	=11
2aa	4bb]
.	16ccc
.	16bb
.	8aa
=12	=12
4ff	16.bb
.	32aa
.	8ff
4ee	[4ee
=13	=13
2aa	8ee]
.	8dd
.	[4ee
=14	=14
16r	2ee_
16f	.
8f	.
8ff	.
[8ff	.
=15	=15
16ff]	2ee]
16aa	.
8ff	.
4ee	.
=16	=16
4dd	2r
4ee	.
=17	=17
4a	4r
4b	8r
.	8f
=18	=18
4f	[2f
4a	.
=19	=19
2ff	8f]
.	[4.b
=20	=20
2aa	8b]
.	[4.ee
=21	=21
2b 2bb	4ee]
.	4ff
=22	=22
4f	8bb
.	8ff
4e	8.ee
.	16dd
=23	=23
16r	2ee
16aa	.
8ff	.
4ee	.
=24	=24
8.ee	8dd
.	[4.ee
16dd	.
4ee	.
=25	=25
4b	2ee]
4cc	.
=26	=26
4a	8r
.	4ff
4b	.
.	[8bb
=27	=27
2aa	4bb]
.	8ccc
.	16bb
.	16aa
=28	=28
4ff	16.bb
.	32aa
.	8ff
4ee	[4ee
=29	=29
2aa	8ee]
.	8dd
.	[4ee
=30	=30
16r	2ee_
16f	.
8f	.
8ff	.
[8ff	.
=31	=31
16ff]	2ee]
16bb	.
8ff	.
4ee	.
=32	=32
4dd	2r
4ee	.
=33	=33
4f	2r
4a	.
=34	=34
4e	4r
4f	8r
.	[8ee
=35	=35
2ee	2ee_
=36	=36
4A 4e	8ee]
.	[4.ff
4ff	.
=37	=37
2e 2ee	8ff]
.	8.ee
.	16dd
.	[8b
=38	=38
4.A 4.e	8b]
.	4.a
8A 8e	.
=39	=39
4b	4.b
4cc	.
.	8a
=40	=40
8bb	[2b
8.b	.
16a	.
8b	.
=41	=41
4f	4b]
4a	4r
=42	=42
4e	4.r
4f	.
.	[8dd
=43	=43
2ee	8dd]
.	4.ee
=44	=44
4A 4e	8dd
.	8ee
8ff	4ff
8b	.
=45	=45
4aa	8ee
.	8ff
8.bb	8.bb
16aa	16aa
=46	=46
4ff	4.ff
8ff	.
8aa	[8bb
=47	=47
8aa	16bb]
.	16aa
8ff	4ff
8ff	.
8ee	[8ee
=48	=48
[4dd	8ee]
.	8dd
16dd]	[4ee
16dd	.
8ee	.
=49	=49
4c	2ee]
4e	.
=50	=50
4B	4r
4c	8r
.	8a
=51	=51
8.b	8.b
16a	16a
8f	8f
8e	[8e
=52	=52
4e	8e]
.	4.e
8dd	.
8ff	.
=53	=53
2e 2ee	4r
.	[4ee
=54	=54
4e	2ee_
8.ee	.
16dd	.
=55	=55
8ee	8ee]
8ff	8ff
8.ee	8ee
.	8dd
16cc	.
=56	=56
4b	8.ee
.	16dd
8bb	[4b
8b	.
=57	=57
4B	2b]
4c	.
=58	=58
4A	8r
.	4.b
4B	.
=59	=59
4a	8a
.	4.b
4b	.
=60	=60
8dd	8ee
[8ee	16b
.	16a
16ee]	16.b
32b	.
32a	32a
8f	8f
=61	=61
2e	8.e
.	16d
.	[4e
=62	=62
2A 2e	2e]
=63	=63
{4cc	2r
8b	.
8cc}	.
=64	=64
2B 2b	2r
====	====
*-	*-
